X:145
T:Lad O'Beirne's
R:reel
C:Lad O'Beirne
Z:Transcribed by Dave Marshall
M:C|
K:G
|: DG (3GGG DGBG | (3ABc BG AGEG | DGGF GABd | egdg egge |
d~B3 dBGB | c~E3 GEDB, | DEGA ~B3c | dBAc BGG2 :|
|:Bdd^c d2ef | g2bg abge | d~B3 dBGB | c~E3 GED2 |
Bdd^c d2ef | g2bg abge | DEGA ~B3c | dBAc BGG2 :|
